X: 11492
T: BRUEDER LAGERT EUCH IM KREISE.
O: Burschen melody.
Q: "Boldly and spiritedly."
%R: air, waltz
B: W. Hamilton "Universal Tune-Book" Vol. 1 Glasgow 1844 p.149 #2
S: http://imslp.org/wiki/Hamilton's_Universal_Tune-Book_(Various)
Z: 2016 John Chambers <jc:trillian.mit.edu>
M: 3/4
L: 1/8
K: D
% - - - - - - - - - - - - - - - - - - - - - - - - -
|:\
A4 d2 | (d2 B2) B2 | (g2 e2) c2 | (dc) d4 :|\
|:\
(f3 d)(af) | fe e4 | (d3 f)(ed) | (dc) c4 |\
(B3 c)(dB) | (A2 g2) f2 | (e2 d2) c2 | d4 z2 :|
% - - - - - - - - - - - - - - - - - - - - - - - - -

%%sep 1 1 500
%%sep 1 1 500

